X: 34866
T: Robbie Tamson's Smiddy
R: reel
M: 4/4
K: Adorian
|:cBAG E2 D2|G2 BG dGBG|ABAG E2 D2|1 e2 dB cA A2:|2 e2 dB cA AB||
|:cdcA d2 dB|cABc dBGB|cdcA d2 gf|1 e2 dB cAAB:|2 e2 dB cA A2||

